!!!!SEGMENT: pl-gd--ee-1638--002-025_marenzio-luca--motettorum-pro-festis-totius-anni-in-nativit-b-m-virg-nativitas-gloriosae-virginis-mariae.krn
!!!cenid: 15xx:1028
!!!COM: Marenzio, Luca
!!!COM-rismID: pe30003955
!!!CDT: ~1553-1599/08/22
!!!CNT: Italian
!!!GTL: Motettorum pro festis totius anni
!!!OTL: In Nativit. B. M. Virg./Nativitas gloriosae Virginis Mariae
!!!OMV: 025
!!!PDT: 1588
!!!AGN:
!!!YEC: Copyright 2022 Narodowy Instytut Fryderyka Chopina (https://polishscores.org)
!!!YEM: License CC-BY-4.0 (https://creativecommons.org/licenses/by/4.0)
!!!SMS-siglum: PL-GD
!!!SMS-shelfmark: Ee 1638
!!!SMS-shelfwork: 002-025 G
!!!SMS-variant:
!!!SMS-altvar:
!!!NIFC-rismSourceID: 1001202747
!!!NIFC-rismChildID: 990039238
!!!NIFC-islandoraID: pl-gd:57883
!!!URL-pdf-islandora: https://repozytorium.nifc.pl/islandora/object/pl-gd%3A57883/datastream/PDF/view
!!!URL-scan: https://polish.musicsources.pl/pl/lokalizacje/galeria/klocki-introligatorskie/655 @EN{Scan on Polish Music Sources Website} @PL{Skany w portalu Dziedzictwo Muzyki Polskiej w otwartym dostępie}
!!!IIIF: https://repozytorium.nifc.pl/islandora/object/pl-gd%3A57883/datastream/IIIF/view
!!!ONB-nifc: UWAGA: Cantus: s. 628 (prawa), Altus: s. 476 (prawa), Tenor: s. 324 (prawa), Bassus: s. 172 (prawa)
!!!AIN: 1 alto 1 bass 1 soprn 1 tenor
!!!key:
**kern	**text	**kern	**text	**kern	**text	**kern	**text
*part4	*	*part3	*	*part2	*	*part1	*
*staff4	*	*staff3	*	*staff2	*	*staff1	*
*I"BASSVS	*	*I"TENOR	*	*I"ALTVS	*	*I"CANTVS	*
*I'B	*	*I'T	*	*I'A	*	*I'S	*
*ICvox	*	*ICvox	*	*ICvox	*	*ICvox	*
*Ibass	*	*Itenor	*	*Ialto	*	*Isoprn	*
*clefF3	*	*clefC3	*	*clefC2	*	*clefG2	*
*k[b-]	*	*k[b-]	*	*k[b-]	*	*k[b-]	*
*d:	*	*d:	*	*d:	*	*d:	*
*M2/1	*	*M2/1	*	*M2/1	*	*M2/1	*
*met(C|)	*	*met(C|)	*	*met(C|)	*	*met(C|)	*
=1-	=1-	=1-	=1-	=1-	=1-	=1-	=1-
*xywh-#172:4580,527,3520,872	*	*xywh-#324:4550,515,3411,814	*	*xywh-#476:4485,525,3448,893	*	*xywh-#628:4511,489,3524,830	*
!LO:TX:t=P:problem: podwójnie zapisany bemol: BB- B-	!	!	!	!LO:TX:t=P:problem: podwójnie zapisany bemol: B- b-	!	!	!
00r	.	00r	.	1r	.	0a	NA-
.	.	.	.	0a	NA-	.	.
=2-	=2-	=2-	=2-	=2-	=2-	=2-	=2-
.	.	.	.	.	.	1.cc	-ti-
.	.	.	.	1.f	-ti-	.	.
.	.	.	.	.	.	2cc\	-ui-
=3-	=3-	=3-	=3-	=3-	=3-	=3-	=3-
00r	.	00r	.	.	.	1cc	-tas
.	.	.	.	2f\	-ui-	.	.
.	.	.	.	1f	-tas	2r	.
.	.	.	.	.	.	2cc\	glo-
=4-	=4-	=4-	=4-	=4-	=4-	=4-	=4-
.	.	.	.	2r	.	2dd\	-ri-
.	.	.	.	2f\	glo-	1ff	-o-
.	.	.	.	2a\	-ri-	.	.
.	.	.	.	1cc\	-o-	2ee\	-ſæ
=5-	=5-	=5-	=5-	=5-	=5-	=5-	=5-
00r	.	0r	.	.	.	2.dd\	Vir-
.	.	.	.	2b-\	-ſæ	.	.
.	.	.	.	.	.	4dd\	-gi-
.	.	.	.	2.a\	Vir-	2cc\	-nis
.	.	.	.	.	.	2ff\	Ma-
.	.	.	.	4a\	-gi-	.	.
=6-	=6-	=6-	=6-	=6-	=6-	=6-	=6-
.	.	1r	.	2g\	-nis	4ee\	-ri-
.	.	.	.	.	.	4dd\	.
.	.	.	.	2f\	Ma-	1dd	.
.	.	0A	NA-	1e	-ri-	.	.
.	.	.	.	.	.	4cc\	.
!	!	!	!	!	!	!LO:SIC:v:t=custos cc	!
.	.	.	.	.	.	4b-/	.
*	*	*	*	*	*	*xywh-#628:4535,1195,3431,675	*
!	!	!	!	!	!	!LO:LB:g=original	!
=7-	=7-	=7-	=7-	=7-	=7-	=7-	=7-
0A	NA-	.	.	1e	-æ	2.cc\	.
.	.	.	.	.	.	4dd\	.
.	.	1.c	-ti-	0a	Na-	1ee	.
=8-	=8-	=8-	=8-	=8-	=8-	=8-	=8-
1.F	-ti-	.	.	.	.	2ff\	-æ
.	.	2c/	-ui-	.	.	2cc\	Na-
.	.	1c	-tas	1.f	-ti-	1.a	-ti-
2F/	-ui-	.	.	.	.	.	.
=9-	=9-	=9-	=9-	=9-	=9-	=9-	=9-
1F	-tas	2r	.	.	.	.	.
!	!	!	!	!LO:SIC:v:t=custos f	!	!	!
.	.	2c/	glo-	2f\	-ui-	2a/	-ui-
*	*	*	*	*xywh-#476:4478,1214,3401,697	*	*	*
!	!	!	!	!LO:LB:g=original	!	!	!
2r	.	2d\	-ri-	4f\	-tas	1a	-tas
.	.	.	.	4g\	.	.	.
2F/	glo-	1f\	-o-	4a\	.	.	.
.	.	.	.	4b-\	.	.	.
=10-	=10-	=10-	=10-	=10-	=10-	=10-	=10-
2A\	-ri-	.	.	2.cc\	.	0r	.
1c	-o-	2e\	-ſæ	.	.	.	.
.	.	.	.	8b-\	.	.	.
.	.	.	.	8a\	.	.	.
*	*	*	*	*lig	*	*	*
.	.	2.d\	Vir-	1g	.	.	.
2B-\	-ſæ	.	.	.	.	.	.
.	.	4d\	-gi-	.	.	.	.
=11-	=11-	=11-	=11-	=11-	=11-	=11-	=11-
2.A\	Vir-	2c/	-nis	1a	.	1r	.
!	!	!LO:SIC:v:t=custos e	!	!	!	!	!
.	.	2f\	Ma-	.	.	.	.
4A\	-gi-	.	.	.	.	.	.
*	*	*xywh-#324:4535,1199,3511,683	*	*	*	*	*
!	!	!LO:LB:g=original	!	!	!	!	!
*	*	*	*	*Xlig	*	*	*
!LO:SIC:v:t=custos F	!	!	!	!	!	!	!
2G\	-nis	4e\	-ri-	1r	.	2r	.
.	.	4d\	.	.	.	.	.
*xywh-#172:4588,1179,3505,746	*	*	*	*	*	*	*
!LO:LB:g=original	!	!	!	!	!	!	!
2F/	Ma-	2.d\	.	.	.	2dd\	glo-
=12-	=12-	=12-	=12-	=12-	=12-	=12-	=12-
1E	-ri-	.	.	1r	.	2ee\	-ri-
.	.	8c/	.	.	.	.	.
!	!	!LO:N:acc=#	!	!	!	!	!
.	.	8Bn/	.	.	.	.	.
.	.	2c#X/	.	.	.	1gg	-o-
1D	-æ	1d	-æ	2r	.	.	.
.	.	.	.	2f\	glo-	2ff\	-ſæ
=13-	=13-	=13-	=13-	=13-	=13-	=13-	=13-
1r	.	0r	.	2a\	-ri-	2.ee\	vir-
.	.	.	.	1cc	-o-	.	.
.	.	.	.	.	.	4ee\	-gi-
2r	.	.	.	.	.	2.dd\	-nis
2G\	glo-	.	.	2b-\	-ſæ	.	.
.	.	.	.	.	.	4ee\	.
=14-	=14-	=14-	=14-	=14-	=14-	=14-	=14-
2A\	-ri-	1cny	glo-	2.a\	vir-	2ff\	.
1c	-o-	.	.	.	.	1ee	Ma-
.	.	.	.	4a\	.	.	.
.	.	2e\	-ri-	4g\	.	.	.
.	.	.	.	4f\	.	.	.
2B-\	-ſæ	1g\	-o-	4e/	.	2.dd\	-ri-
.	.	.	.	4d/	-gi-	.	.
=15-	=15-	=15-	=15-	=15-	=15-	=15-	=15-
2.A\	vir-	.	.	2e/	-nis	.	.
!	!	!	!	!	!	!LO:SIC:v:t=custos cc	!
.	.	.	.	.	.	4cc\	.
*	*	*	*	*	*	*xywh-#628:4542,1708,3454,714	*
!	!	!	!	!	!	!LO:LB:g=original	!
.	.	2f\	-ſæ	2c/	Ma-	2.cc\	.
4A\	-gi-	.	.	.	.	.	.
1.G	-nis	2.e\	vir-	2.g\	-ri-	.	.
!	!	!	!	!	!	!LO:N:acc=#	!
.	.	.	.	.	.	8bn/	.
.	.	.	.	.	.	8a/	.
!	!	!	!	!	!	!LO:N:acc=#	!
.	.	.	.	.	.	4bn/	.
.	.	4e\	-gi-	4a\	.	4cc\	.
=16-	=16-	=16-	=16-	=16-	=16-	=16-	=16-
.	.	2d\	-nis	4b-\	.	4dd\	.
!	!	!	!	!LO:SIC:v:t=custos a	!	!	!
.	.	.	.	4g\	.	4b-y/	.
*	*	*	*	*xywh-#476:4485,1747,3417,744	*	*	*
2D/	Ma-	2f\	Ma-	2.a\	.	1dd	.
1A	-ri-	1e	-ri-	.	.	.	.
.	.	.	.	8g\	.	.	.
.	.	.	.	8f\	.	.	.
.	.	.	.	2e/	.	2cc#X\	.
=17-	=17-	=17-	=17-	=17-	=17-	=17-	=17-
1D	-ę	2d\	-ę	2.f\	-ę	0dd	-ę
.	.	2d\	Na-	.	.	.	.
.	.	.	.	4g\	.	.	.
0d	Na-	1.f	-ti-	1a	.	.	.
=18-	=18-	=18-	=18-	=18-	=18-	=18-	=18-
.	.	.	.	0d	Na-	2r	.
.	.	2f\	-ui-	.	.	1ff	Na-
1.B-	-ti-	1f	-tas	.	.	.	.
.	.	.	.	.	.	1dd\	-ti-
=19-	=19-	=19-	=19-	=19-	=19-	=19-	=19-
.	.	1r	.	1.f	-ti-	.	.
2B-\	-ui-	.	.	.	.	2dd\	-ui-
1B-	-tas	2r	.	.	.	0dd	-tas
!	!	!LO:SIC:v:t=custos d	!	!	!	!	!
.	.	2B-y/	glo-	2f\	-ui-	.	.
*	*	*xywh-#324:4543,1721,3450,706	*	*	*	*	*
!	!	!LO:LB:g=original	!	!	!	!	!
=20-	=20-	=20-	=20-	=20-	=20-	=20-	=20-
2r	.	2d\	-ri-	2f\	-tas	.	.
!LO:SIC:v:t=custos D	!	!	!	!	!	!	!
2BB-/	glo-	1B-	-o-	2d/	glo-	.	.
*xywh-#172:4588,1753,3536,691	*	*	*	*	*	*	*
!LO:LB:g=original	!	!	!	!	!	!	!
2D/	-ri-	.	.	2f\	-ri-	2r	.
1F\	-o-	2A/	-ſę	1a\	-o-	2f/	glo-
=21-	=21-	=21-	=21-	=21-	=21-	=21-	=21-
.	.	2.c/	vir-	.	.	2a/	-ri-
2E/	-ſę	.	.	2g\	-ſę	1ccny	-o-
.	.	4c/	-gi-	.	.	.	.
2.D/	vir-	1d	-nis	2.f\	vir-	.	.
!	!	!	!	!	!	!LO:N:acc=#	!
.	.	.	.	.	.	2bn/	-ſę
4D/	-gi-	.	.	4f\	-gi-	.	.
=22-	=22-	=22-	=22-	=22-	=22-	=22-	=22-
2C/	-nis	2e\	Ma-	2g\	-nis	2.cc\	vir-
2F/	Ma-	2.f\	-ri-	1a	Ma-	.	.
!	!	!	!	!	!	!LO:SIC:v:t=custos cc	!
.	.	.	.	.	.	4cc\	-gi-
*	*	*	*	*	*	*xywh-#628:4535,2236,3439,737	*
!	!	!	!	!	!	!LO:LB:g=original	!
1A	-ri-	.	.	.	.	2cc\	-nis
.	.	8e\	.	.	.	.	.
.	.	8d\	.	.	.	.	.
.	.	4e\	.	2.cc\	-ri-	2a/	Ma-
.	.	4f\	.	.	.	.	.
=23-	=23-	=23-	=23-	=23-	=23-	=23-	=23-
1G	-ę	1g	.	.	.	1dd	-ri-
.	.	.	.	8b-\	.	.	.
.	.	.	.	8a\	.	.	.
!	!	!	!	!LO:N:acc=#	!	!	!
.	.	.	.	2bn\	.	.	.
2r	.	1c	-æ	2.cc\	-ę	1ee	-æ
2c\	ex	.	.	.	.	.	.
.	.	.	.	8b\	.	.	.
!	!	!	!	!LO:SIC:v:t=custos g	!	!	!
.	.	.	.	8a\	.	.	.
=24-	=24-	=24-	=24-	=24-	=24-	=24-	=24-
*	*	*	*	*xywh-#476:4485,2241,3464,768	*	*	*
2.c\	ſe-	2r	.	1g	.	0r	.
.	.	2g\	ex	.	.	.	.
4G\	-mi-	.	.	.	.	.	.
2c\	-ne	2.g\	ſe-	1r	.	.	.
1B-\	A-	.	.	.	.	.	.
.	.	4d\	-mi-	.	.	.	.
=25-	=25-	=25-	=25-	=25-	=25-	=25-	=25-
.	.	2g\	-ne	2r	.	1r	.
2A\	-bra-	2.f\	A-	2cc\	ex	.	.
1c	-hę	.	.	2.cc\	ſe-	2r	.
.	.	4e\	-bra-	.	.	.	.
.	.	2e\	-hę	.	.	2gg\	ex
.	.	.	.	4g\	-mi-	.	.
=26-	=26-	=26-	=26-	=26-	=26-	=26-	=26-
0r	.	0r	.	2cc\	-ne	2.gg\	ſe-
.	.	.	.	1b-	A-	.	.
.	.	.	.	.	.	4dd\	-mi-
.	.	.	.	.	.	2gg\	-ne
.	.	.	.	2a\	-bra-	2.ff\	A-
=27-	=27-	=27-	=27-	=27-	=27-	=27-	=27-
*	*ij	*	*	*	*	*	*
1c	ex	2r	.	2cc\	-hę	.	.
.	.	.	.	.	.	4ee\	-bra-
!	!	!LO:SIC:v:t=custos e	!	!	!	!	!
*	*	*	*ij	*	*	*	*
.	.	2e\	ex	1g	ex	2ee\	-hę
*	*	*xywh-#324:4550,2282,3427,691	*	*	*	*	*
!	!	!LO:LB:g=original	!	!	!	!	!
2.c\	se-	2.e\	se-	.	.	2r	.
*	*	*	*	*	*	*	*ij
.	.	.	.	2.g\	ſe-	2gg\	ex
!LO:SIC:v:t=custos c	!	!	!	!	!	!	!
4G\	-mi-	4d\	-mi-	.	.	.	.
=28-	=28-	=28-	=28-	=28-	=28-	=28-	=28-
*xywh-#172:4627,2334,3458,660	*	*	*	*	*	*	*
2c\	-ne	2e\	-ne	.	.	2.cc\	se-
.	.	.	.	4e/	-mi-	.	.
1F	A-	2.f\	A-	2a\	-ne	.	.
.	.	.	.	.	.	4a/	-mi-
.	.	.	.	2.a\	A-	2dd\	-ne
.	.	4e\	-bra-	.	.	.	.
2A\	-bra-	4d\	.	.	.	1cc\	A-
.	.	4c/	.	4e/	-bra-	.	.
=29-	=29-	=29-	=29-	=29-	=29-	=29-	=29-
1G	-hę	2.d\	.	1g	-hæ	.	.
!	!	!	!	!	!	!LO:N:acc=#	!
.	.	.	.	.	.	2bn/	-bra-
.	.	4d\	.	.	.	.	.
1r	.	1e	-hę	2.c/	or-	0cc	-hæ
.	.	.	.	4d/	.	.	.
*	*Xij	*	*Xij	*	*	*	*Xij
=30-	=30-	=30-	=30-	=30-	=30-	=30-	=30-
1r	.	1r	.	4e/	.	.	.
.	.	.	.	4c/	.	.	.
.	.	.	.	1f	.	.	.
2.C/	or-	0c	or-	.	.	1r	.
.	.	.	.	2e/	-ta	.	.
4D/	.	.	.	.	.	.	.
=31-	=31-	=31-	=31-	=31-	=31-	=31-	=31-
!	!	!	!	!	!	!LO:SIC:v:t=custos cc#	!
4E/	.	.	.	1r	.	1r	.
4C/	.	.	.	.	.	.	.
2F/	.	.	.	.	.	.	.
*	*	*	*	*	*	*xywh-#628:4535,2802,3478,698	*
2C/	-ta	1c	-ta	2.e/	or-	2.cc\	or-
2c\	de	.	.	.	.	.	.
.	.	.	.	4f\	.	4dd\	.
=32-	=32-	=32-	=32-	=32-	=32-	=32-	=32-
2c\	tri-	0r	.	4g\	.	4ee\	.
.	.	.	.	4e/	.	4cc\	.
!	!	!	!	!LO:SIC:v:t=custos g	!	!	!
2A\	-bu	.	.	2a\	.	1ff	.
*	*	*	*	*xywh-#476:4485,2852,3401,744	*	*	*
!	!	!	!	!LO:LB:g=original	!	!	!
1c	Iu-	.	.	2g\	-ta	.	.
.	.	.	.	2cc\	de	2ee\	-ta
=33-	=33-	=33-	=33-	=33-	=33-	=33-	=33-
1F	-da	2.c/	or-	2cc\	tri-	2r	.
.	.	.	.	2a\	-bu	2cc\	de
.	.	4d\	.	.	.	.	.
2r	.	4e\	.	1cc	Iu-	2cc\	tri-
.	.	4c/	.	.	.	.	.
*	*ij	*	*	*	*	*	*
2.F/	or-	2.f\	.	.	.	2a/	-bu
=34-	=34-	=34-	=34-	=34-	=34-	=34-	=34-
.	.	.	.	1f	-da	1cc	Iu-
4G\	.	8e\	.	.	.	.	.
.	.	8d\	.	.	.	.	.
4A\	.	2c/	.	.	.	.	.
!LO:SIC:v:t=custos B-	!	!	!	!	!	!	!
4F/	.	.	.	.	.	.	.
*xywh-#172:4619,2806,3489,754	*	*	*	*	*	*	*
!LO:LB:g=original	!	!LO:SIC:v:t=custos A	!	!	!	!	!
1B-	.	1d	-ta	1r	.	2f/	-da
*	*	*	*	*	*ij	*	*ij
.	.	.	.	.	.	2ff\	de
*	*	*xywh-#324:4558,2828,3473,683	*	*	*	*	*
!	!	!LO:LB:g=original	!	!	!	!	!
=35-	=35-	=35-	=35-	=35-	=35-	=35-	=35-
2F/	-ta	2.A/	or-	2.f\	A-	2ff\	tri-
2F/	de	.	.	.	.	2cc\	-bu
.	.	4B-/	.	4g\	-bra-	.	.
2F/	tri-	4c/	.	4a\	-hæ	0ff	Iu-
.	.	4A/	.	4f\	or-	.	.
2D/	-bu	2d\	.	2.b-\	-ta	.	.
=36-	=36-	=36-	=36-	=36-	=36-	=36-	=36-
1F	Iu-	2c/	-ta	.	.	.	.
.	.	.	.	8a\	or-	.	.
.	.	.	.	8g\	.	.	.
.	.	2f\	de	2a\	-ta	.	.
1BB-	-da	2f\	tri-	2b-\	de	0.dd	-da
.	.	2d\	-bu	2f\	tri-	.	.
*	*Xij	*	*	*	*	*	*Xij
=37-	=37-	=37-	=37-	=37-	=37-	=37-	=37-
2.B-\	cla-	2f\	Iu-	2f\	-bu	.	.
.	.	2B-/	-da	2d/	.	.	.
4B-\	-ra	.	.	.	.	.	.
1B-	ex	2r	.	1f	Iu-	.	.
.	.	2.d\	cla-	.	.	.	.
=38-	=38-	=38-	=38-	=38-	=38-	=38-	=38-
1G	ſtir-	.	.	1B-	-da	0r	.
.	.	4d\	-ra	.	.	.	.
.	.	2d\	ex	.	.	.	.
2F/	-pe	2f\	ſtir-	1r	.	.	.
2.A\	Da-	2f\	-pe	.	.	.	.
*	*	*	*	*	*Xij	*	*
=39-	=39-	=39-	=39-	=39-	=39-	=39-	=39-
.	.	1e	Da-	1r	.	2r	.
4B-\	.	.	.	.	.	.	.
2.c\	.	.	.	.	.	2.gg\	cla-
.	.	1d	-uid	2r	.	.	.
8B-\	.	.	.	.	.	4gg\	-ra
8A\	.	.	.	.	.	.	.
!LO:N:acc=#	!	!	!	!	!	!LO:SIC:v:t=custos ee	!
2Bn\	.	.	.	2.g\	cla-	2gg\	ex
*	*	*	*	*	*	*xywh-#628:4550,3338,3423,753	*
!	!	!	!	!	!	!LO:LB:g=original	!
=40-	=40-	=40-	=40-	=40-	=40-	=40-	=40-
*lig	*	*	*	*	*	*	*
1c	-uid	1r	.	.	.	1ee	ſtir-
.	.	.	.	4g\	-ra	.	.
.	.	.	.	2g\	ex	.	.
1G	.	1g	cu-	2b-\	ſtir-	2dd\	-pe
!	!	!	!	!LO:SIC:v:t=custos a	!	!	!
.	.	.	.	2b-\	-pe	2.gg\	Da-
*	*	*	*	*xywh-#476:4485,3393,3354,713	*	*	*
!	!	!	!	!LO:LB:g=original	!	!	!
*Xlig	*	*	*	*	*	*	*
=41-	=41-	=41-	=41-	=41-	=41-	=41-	=41-
0r	.	1d	-ius	1a	Da-	.	.
.	.	.	.	.	.	8ff\	.
.	.	.	.	.	.	8ee\	.
.	.	.	.	.	.	2ff#X\	.
!	!	!LO:SIC:v:t=custos d	!	!	!	!	!
.	.	1e-X	vi-	2g\	-uid	1gg	-uid
.	.	.	.	1g\	cu-	.	.
*	*	*xywh-#324:4550,3343,3327,706	*	*	*	*	*
!	!	!LO:LB:g=original	!	!	!	!	!
=42-	=42-	=42-	=42-	=42-	=42-	=42-	=42-
!LO:SIC:v:t=custos D	!	!	!	!	!	!	!
1G	cu-	2d\	-ta	.	.	1r	.
.	.	2.g\	in-	2d/	-ius	.	.
*xywh-#172:4572,3379,3426,699	*	*	*	*	*	*	*
!LO:LB:g=original	!	!	!	!	!	!	!
1D	-ius	.	.	2b-\	vi-	2r	.
.	.	4f#X\	-cli-	.	.	.	.
.	.	2f#\	-ta	2a\	-ta	2.dd\	in-
=43-	=43-	=43-	=43-	=43-	=43-	=43-	=43-
1E-X	vi-	1g	cunc-	2r	.	.	.
.	.	.	.	.	.	4cc\	-cli-
.	.	.	.	2.g\	in-	2cc\	-ta
1D	-ta	1a	-tas	.	.	1dd	cunc-
.	.	.	.	4f\	-cli-	.	.
.	.	.	.	2f\	-ta	.	.
=44-	=44-	=44-	=44-	=44-	=44-	=44-	=44-
*	*ij	*	*	*	*	*	*
1d	cu-	2r	.	1f	cu(n)c-	0a	-tas
.	.	2.d\	in-	.	.	.	.
1A	-ius	.	.	2e/	-tas	.	.
.	.	4c#X/	-cli-	.	.	.	.
.	.	2c#/	-ta	2.a\	Da-	.	.
=45-	=45-	=45-	=45-	=45-	=45-	=45-	=45-
1B-y	vi-	2.d\	cun-	.	.	2r	.
.	.	.	.	4g\	-uid	.	.
*	*	*	*	*	*	*	*ij
.	.	.	.	2g\	cu-	2.dd\	stir-
.	.	4eny\	.	.	.	.	.
1A	-ta	2fny\	.	1a	-ius	.	.
.	.	.	.	.	.	4cc#X\	-pe
.	.	2eny\	-ctas	.	.	2cc#\	.
*	*Xij	*	*	*	*	*	*
=46-	=46-	=46-	=46-	=46-	=46-	=46-	=46-
2r	.	1a	cu-	4d/	vi-	1dd	Da-
.	.	.	.	4e/	-ta	.	.
2.d\	in-	.	.	4f\	in-	.	.
.	.	.	.	4d/	-cli-	.	.
.	.	1eny	-ius	1a	-ta	1ee	-vid
4c#X\	-cli-	.	.	.	.	.	.
2c#\	-ta	.	.	.	.	.	.
=47-	=47-	=47-	=47-	=47-	=47-	=47-	=47-
1d	cunc-	1f	vi-	2r	.	2r	.
.	.	.	.	1a	cu-	2.dd\	in-
2A\	-tas	1eny	-ta	.	.	.	.
!	!	!	!	!	!	!LO:SIC:v:t=custos cc	!
.	.	.	.	.	.	4cc#X\	-cli-
*	*	*	*	*	*	*xywh-#628:4581,3920,3377,659	*
!	!	!	!	!	!	!LO:LB:g=original	!
2A\	il-	.	.	2e/	-ius	2cc#\	-ta
=48-	=48-	=48-	=48-	=48-	=48-	=48-	=48-
4D/	-lu-	2r	.	1f	vi-	2dd\	cun-
4Eny/	.	.	.	.	.	.	.
4F/	.	2.d\	in-	.	.	2a/	ctas
4G\	.	.	.	.	.	.	.
*	*	*	*	*	*	*	*Xij
1A	.	.	.	1e	-ta	2a/	cu-
!	!	!LO:SIC:v:t=custos c#	!	!	!	!	!
.	.	4c#X/	-cli-	.	.	.	.
*	*	*xywh-#324:4581,3903,3473,699	*	*	*	*	*
!	!	!LO:LB:g=original	!	!	!	!	!
.	.	2c#/	-ta	.	.	2e/	-ius
=49-	=49-	=49-	=49-	=49-	=49-	=49-	=49-
1.D	-ſtrat	4d\	cun-	2r	.	1f	vi-
.	.	8cny/	.	.	.	.	.
.	.	8B-/	.	.	.	.	.
*	*	*	*	*	*ij	*	*
.	.	2A/	.	1a	cu-	.	.
.	.	0A	-ctas	.	.	1e	-ta
!LO:SIC:v:t=custos D	!	!	!	!	!	!	!
2C#X/	ec-	.	.	2e/	-ius	.	.
*xywh-#172:4627,3882,3528,1532	*	*	*	*	*	*	*
!LO:LB:g=original	!	!	!	!	!	!	!
=50-	=50-	=50-	=50-	=50-	=50-	=50-	=50-
!	!	!	!	!LO:SIC:v:t=custos e	!	!	!
2.D/	-cle-	.	.	1f	vi-	2r	.
.	.	.	.	.	.	2.dd\	in-
4D/	-ſi-	.	.	.	.	.	.
*	*	*	*	*xywh-#476:4509,3942,3440,1489	*	*	*
!	!	!	!	!LO:LB:g=original	!	!	!
1AA	-as	2r	.	1e	-ta	.	.
.	.	.	.	.	.	4cc#X\	-cli-
.	.	2a\	il-	.	.	2cc#\	-ta
*	*	*	*	*	*Xij	*	*
=51-	=51-	=51-	=51-	=51-	=51-	=51-	=51-
1r	.	4d\	-lu-	2r	.	2dd\	cu(n)c-
.	.	4eny\	.	.	.	.	.
.	.	4f\	.	2.d/	in-	2a/	-tas
.	.	4g\	.	.	.	.	.
2r	.	1.a	.	.	.	2dd\	cu-
.	.	.	.	4c#X/	-cli-	.	.
2A\	il-	.	.	2c#/	-ta	2ee\	-ius
=52-	=52-	=52-	=52-	=52-	=52-	=52-	=52-
4D/	-lu-	.	.	2d/	cu(n)c-	1ffny	vi-
4E/	.	.	.	.	.	.	.
4F/	.	1d	-ſtrat	2A/	-tas	.	.
4G\	.	.	.	.	.	.	.
1A	.	.	.	2r	.	1ee	-ta
*	*	*	*	*	*ij	*	*
.	.	2c#X/	Ec-	2.a\	in-	.	.
=53-	=53-	=53-	=53-	=53-	=53-	=53-	=53-
1D	-ſtrat	2.d\	-cle-	.	.	2r	.
.	.	.	.	4a\	-cli-	.	.
.	.	.	.	2f\	-ta	2.dd\	in-
.	.	4d\	-ſi-	.	.	.	.
2r	.	1A	-as	1e	cun-	.	.
.	.	.	.	.	.	4cc#X\	-cli-
!	!	!	!	!	!	!LO:SIC:v:t=custos dd	!
*	*ij	*	*	*	*	*	*
2A\	il-	.	.	.	.	2cc#\	-ta
*	*	*	*	*	*	*xywh-#628:4566,4448,3392,807	*
!	!	!	!	!	!	!LO:LB:g=original	!
=54-	=54-	=54-	=54-	=54-	=54-	=54-	=54-
4D/	-lu-	2r	.	2f\	-ctas	2.dd\	cun-
4E/	.	.	.	.	.	.	.
*	*	*	*ij	*	*Xij	*	*
4F/	.	1a	il-	1d	il-	.	.
4G\	.	.	.	.	.	4ee\	.
0A	.	.	.	.	.	2ff\	.
.	.	2.a\	-lu-	4c#X/	.	2ee\	-ctas
!	!	!	!	!LO:N:acc=#	!	!	!
.	.	.	.	4Bn/	.	.	.
=55-	=55-	=55-	=55-	=55-	=55-	=55-	=55-
.	.	.	.	1c#X	.	2r	.
.	.	8g\	-strat	.	.	.	.
!	!	!LO:SIC:v:t=custos e	!	!	!	!	!
.	.	8f\	ec-	.	.	.	.
*	*	*xywh-#324:4566,4434,3419,875	*	*	*	*	*
!	!	!LO:LB:g=original	!	!	!	!	!
.	.	2e\	-cle-	.	.	1a	il-
1.D	-strat	1.fny	-si-	4d/	.	.	.
.	.	.	.	4e/	-lu-	.	.
.	.	.	.	4f\	.	4d/	-lu-
.	.	.	.	4g\	.	4e/	.
*	*Xij	*	*	*	*	*	*
=56-	=56-	=56-	=56-	=56-	=56-	=56-	=56-
.	.	.	.	1a	-ſtrat	4f/	.
.	.	.	.	.	.	4g/	.
2C#X/	Ec-	2eny\	.	.	.	2a/	.
0D	-cle-	0d	.	1f	ec-	2a/	-ſtrat
.	.	.	.	.	.	2b-y/	Ec-
=57-	=57-	=57-	=57-	=57-	=57-	=57-	=57-
.	.	.	.	2f\	-cle-	1.a	-cle-
.	.	.	.	1f	-ſi-	.	.
1D	-ſi-	1d	.	.	.	.	.
.	.	.	.	2f\	.	2a/	-ſi-
=58-	=58-	=58-	=58-	=58-	=58-	=58-	=58-
00AA	-as.	00c#X	-as	00e	-as.	00a	-as.
==	==	==	==	==	==	==	==
*-	*-	*-	*-	*-	*-	*-	*-
!!!system-decoration: [(s1,s2,s3,s4)]
!!!ENC: Andrzej Gręziak
!!!END: 2022-07-03
!!!ENC: Natalia Wrzos
!!!END: 2022-07-09
!!!ENC-iiif: Lidia Bialucha
!!!END-iiif: 2022-09-11
